X:1
T: The Bridal Jig
C:
R:Jig
Q:180
K:G
M:6/8
L:1/16
D2|G6 B2G2B2|d2e2f2 g2d2B2|e2c2A2 d2B2G2|F2A2G2 F2E2D2|G4G2 B2G2B2|d2e2f2 g2d2B2|e2c2A2 d2B2G2|F2E2F2 G4B2|
B2e2e2 e2d2B2|d2e2f2 g4a2|b2g2b2 a2f2a2|g2e2g2 f2d2B2|B2e2e2 e2d2B2|d2e2f2 g4a2|b2g2b2 a2f2a2|g2e2e2 e4B2|
B2e2e2 e2d2B2|d2e2f2 g4a2|b2g2b2 a2f2a2|g2e2g2 f2d2B2|B2e2e2 e2d2B2|d2e2f2 g4a2|b2g2b2 a2f2a2|g4g2 g2d2B2|
G6 B2G2B2|d2e2f2 g2d2B2|e2c2A2 d2B2G2|F2A2G2 F2E2D2|G4G2 B2G2B2|d2e2f2 g2d2B2|e2c2A2 d2B2G2|F2E2F2 G4||
